flaticon/army-badges/backpack-1.svg

<svg xmlns="http://www.w3.org/2000/svg" width="32" height="32" viewBox="0 0 24 24">
    <path d="M9.199219 6.398438L14.800781 6.398438C15.039062 6.398438 15.199219 6.238281 15.199219 6L15.199219 2.800781C15.199219 2.558594 15.039062 2.398438 14.800781 2.398438L9.199219 2.398438C8.960938 2.398438 8.800781 2.558594 8.800781 2.800781L8.800781 6C8.800781 6.238281 8.960938 6.398438 9.199219 6.398438zM9.601562 3.199219L14.398438 3.199219 14.398438 5.601562 9.601562 5.601562zM6.238281 17.960938C6.292969 17.988281 6.347656 18.011719 6.398438 18.035156L6.398438 19.199219C6.398438 19.640625 6.679688 20 7.078125 20L8.921875 20C9.28125 20 9.601562 19.679688 9.558594 19.199219L9.558594 18.066406C9.628906 18.03125 9.695312 17.996094 9.761719 17.960938 9.921875 17.878906 10 17.761719 10 17.601562L10 16C10 15.558594 9.679688 15.199219 9.28125 15.199219L6.71875 15.199219C6.320312 15.199219 6 15.558594 6 16L6 17.601562C6 17.761719 6.078125 17.921875 6.238281 17.960938zM8.800781 19.199219L7.199219 19.199219 7.199219 18.320312C7.703125 18.4375 8.246094 18.441406 8.75 18.332031 8.765625 18.328125 8.785156 18.324219 8.800781 18.320312zM6.800781 16L9.199219 16 9.199219 17.359375C9.1875 17.367188 9.171875 17.371094 9.160156 17.375 9.121094 17.378906 9.078125 17.386719 9.039062 17.398438 8.359375 17.640625 7.601562 17.640625 6.921875 17.398438 6.902344 17.394531 6.886719 17.390625 6.867188 17.386719 6.84375 17.378906 6.824219 17.367188 6.800781 17.359375zM14.238281 17.960938C14.304688 17.992188 14.371094 18.023438 14.441406 18.054688L14.441406 19.199219C14.441406 19.640625 14.71875 20 15.121094 20L16.921875 20C17.28125 20 17.601562 19.679688 17.601562 19.199219L17.601562 18.035156C17.652344 18.011719 17.707031 17.988281 17.761719 17.960938 17.921875 17.878906 18 17.761719 18 17.601562L18 16C18 15.558594 17.679688 15.199219 17.28125 15.199219L14.71875 15.199219C14.320312 15.199219 14 15.558594 14 16L14 17.601562C14 17.761719 14.078125 17.921875 14.238281 17.960938zM16.800781 19.199219L15.199219 19.199219 15.199219 18.320312C15.71875 18.441406 16.28125 18.441406 16.800781 18.320312zM14.800781 16L17.199219 16 17.199219 17.359375C17.175781 17.371094 17.15625 17.378906 17.132812 17.386719 17.113281 17.390625 17.097656 17.394531 17.078125 17.398438 16.398438 17.640625 15.640625 17.640625 14.960938 17.398438 14.921875 17.386719 14.878906 17.378906 14.839844 17.375 14.828125 17.371094 14.8125 17.367188 14.800781 17.359375zM14.800781 16"/>
    <path d="M 13.199219 4 L 10.800781 4 C 10.558594 4 10.398438 4.160156 10.398438 4.398438 C 10.398438 4.640625 10.558594 4.800781 10.800781 4.800781 L 13.199219 4.800781 C 13.441406 4.800781 13.601562 4.640625 13.601562 4.398438 C 13.601562 4.160156 13.441406 4 13.199219 4 Z M 13.199219 4"/>
    <path d="M 21.199219 17.800781 C 21.199219 17.28125 20.898438 16.816406 20.464844 16.574219 C 20.675781 16.304688 20.800781 15.964844 20.800781 15.601562 L 20.800781 15.199219 C 20.800781 14.457031 20.289062 13.828125 19.601562 13.652344 L 19.601562 3.601562 C 19.601562 2.640625 18.902344 1.804688 17.988281 1.632812 C 17.886719 0.726562 17.128906 0 16.199219 0 L 7.839844 0 C 6.871094 0 6.113281 0.726562 6.011719 1.632812 C 5.097656 1.804688 4.398438 2.640625 4.398438 3.601562 L 4.398438 13.652344 C 3.710938 13.828125 3.199219 14.457031 3.199219 15.199219 L 3.199219 15.601562 C 3.199219 15.980469 3.332031 16.328125 3.554688 16.601562 C 3.109375 16.839844 2.800781 17.3125 2.800781 17.839844 C 2.800781 18.992188 3.386719 20.039062 4.398438 20.632812 L 4.398438 21.199219 C 4.398438 22.761719 5.640625 24 7.199219 24 L 16.800781 24 C 18.359375 24 19.601562 22.761719 19.601562 21.199219 L 19.601562 20.632812 C 20.613281 20.035156 21.199219 18.953125 21.199219 17.800781 Z M 20 15.238281 L 20 15.640625 C 20 15.921875 19.839844 16.199219 19.601562 16.320312 L 19.601562 14.519531 C 19.839844 14.640625 20 14.921875 20 15.238281 Z M 6.800781 1.839844 C 6.800781 1.28125 7.238281 0.800781 7.839844 0.800781 L 16.160156 0.800781 C 16.761719 0.800781 17.199219 1.28125 17.199219 1.839844 L 17.199219 4.800781 C 17.199219 6.519531 15.800781 8 14.160156 8 L 9.839844 8 C 8.199219 8 6.800781 6.519531 6.800781 4.800781 Z M 12.800781 12 L 11.199219 12 L 11.199219 10.398438 L 12.800781 10.398438 Z M 11.601562 12.800781 L 12.398438 12.800781 L 12.398438 13.480469 L 12 14.078125 L 11.601562 13.480469 Z M 12.398438 9.601562 L 11.601562 9.601562 L 11.601562 8.800781 L 12.398438 8.800781 Z M 5.199219 3.601562 C 5.199219 3.078125 5.519531 2.640625 6 2.480469 L 6 4.800781 C 6 7 7.761719 8.800781 9.839844 8.800781 L 10.800781 8.800781 L 10.800781 9.707031 C 10.5625 9.847656 10.398438 10.105469 10.398438 10.398438 L 10.398438 12 C 10.398438 12.292969 10.5625 12.550781 10.800781 12.691406 L 10.800781 13.601562 C 10.800781 13.679688 10.839844 13.761719 10.878906 13.839844 L 11.679688 15.039062 C 11.761719 15.121094 11.878906 15.199219 12 15.199219 C 12.121094 15.199219 12.238281 15.160156 12.320312 15.039062 L 13.121094 13.839844 C 13.160156 13.761719 13.199219 13.679688 13.199219 13.601562 L 13.199219 12.691406 C 13.4375 12.550781 13.601562 12.292969 13.601562 12 L 13.601562 10.398438 C 13.601562 10.105469 13.4375 9.847656 13.199219 9.707031 L 13.199219 8.800781 L 14.160156 8.800781 C 16.238281 8.800781 18 7 18 4.800781 L 18 2.480469 C 18.480469 2.640625 18.800781 3.078125 18.800781 3.601562 L 18.800781 20.800781 L 5.199219 20.800781 Z M 4 15.199219 C 4 14.921875 4.160156 14.640625 4.398438 14.519531 L 4.398438 16.28125 C 4.160156 16.160156 4 15.878906 4 15.601562 Z M 3.601562 17.839844 C 3.601562 17.480469 3.878906 17.199219 4.199219 17.199219 L 4.398438 17.199219 L 4.398438 19.679688 C 3.878906 19.199219 3.601562 18.558594 3.601562 17.839844 Z M 7.199219 23.199219 C 7.167969 23.199219 7.136719 23.199219 7.105469 23.199219 C 7.085938 23.195312 7.0625 23.195312 7.042969 23.195312 C 7.035156 23.191406 7.027344 23.191406 7.019531 23.191406 C 6.140625 23.113281 5.425781 22.460938 5.238281 21.601562 L 18.761719 21.601562 C 18.574219 22.460938 17.859375 23.113281 16.980469 23.191406 C 16.972656 23.191406 16.964844 23.191406 16.957031 23.195312 C 16.9375 23.195312 16.914062 23.195312 16.894531 23.199219 C 16.863281 23.199219 16.832031 23.199219 16.800781 23.199219 Z M 19.601562 19.640625 L 19.601562 17.199219 L 19.800781 17.199219 C 20.121094 17.199219 20.398438 17.480469 20.398438 17.800781 C 20.398438 18.519531 20.121094 19.160156 19.601562 19.640625 Z M 19.601562 19.640625"/>
</svg>

<svg xmlns="http://www.w3.org/2000/svg" width="32" height="32" viewBox="0 0 24 24">
    <path d="M9.2 6.398h5.6c.24 0 .4-.16.4-.398V2.8c0-.241-.16-.402-.4-.402H9.2c-.24 0-.4.16-.4.403V6c0 .238.16.398.4.398zM9.601 3.2h4.796v2.403H9.602zm0 0M6.238 17.96c.055.028.11.052.16.075V19.2c0 .442.282.801.68.801h1.844c.36 0 .68-.32.637-.8v-1.134c.07-.035.136-.07.203-.105.16-.082.238-.2.238-.36V16c0-.441-.32-.8-.719-.8H6.72c-.399 0-.719.359-.719.8v1.602c0 .16.078.32.238.359zm2.563 1.24H7.199v-.88a3.581 3.581 0 0 0 1.551.012l.05-.012zm-2-3.2h2.398v1.36c-.011.007-.027.011-.039.015a.662.662 0 0 0-.12.023 3.176 3.176 0 0 1-2.118 0l-.055-.011c-.023-.008-.043-.02-.066-.028zm0 0M14.238 17.96l.203.095v1.144c0 .442.278.801.68.801h1.8c.36 0 .68-.32.68-.8v-1.165c.051-.023.106-.047.16-.074.16-.082.239-.2.239-.36V16c0-.441-.32-.8-.719-.8H14.72c-.399 0-.719.359-.719.8v1.602c0 .16.078.32.238.359zm2.563 1.24h-1.602v-.88c.52.121 1.082.121 1.602 0zm-2-3.2h2.398v1.36a.477.477 0 0 1-.066.027l-.055.011a3.176 3.176 0 0 1-2.117 0 .662.662 0 0 0-.121-.023c-.012-.004-.027-.008-.04-.016zm0 0"/>
    <path d="M13.2 4h-2.4c-.241 0-.402.16-.402.398 0 .243.16.403.403.403h2.398c.242 0 .403-.16.403-.403 0-.238-.16-.398-.403-.398zm0 0"/>
    <path d="M21.2 17.8c0-.519-.302-.984-.735-1.226.21-.27.336-.61.336-.972v-.403c0-.742-.512-1.37-1.2-1.547V3.602c0-.961-.699-1.797-1.613-1.97C17.887.728 17.128 0 16.2 0H7.84c-.968 0-1.726.727-1.827 1.633-.914.172-1.614 1.008-1.614 1.969v10.05c-.687.176-1.199.805-1.199 1.547v.403c0 .378.133.726.356 1A1.42 1.42 0 0 0 2.8 17.84c0 1.152.586 2.2 1.597 2.793v.566C4.398 22.762 5.641 24 7.2 24h9.602c1.558 0 2.8-1.238 2.8-2.8v-.567A3.271 3.271 0 0 0 21.2 17.8zM20 15.239v.403c0 .28-.16.558-.398.68V14.52c.238.12.398.402.398.718zM6.8 1.84C6.8 1.28 7.239.8 7.84.8h8.32c.602 0 1.04.481 1.04 1.04V4.8c0 1.72-1.4 3.2-3.04 3.2H9.84C8.2 8 6.8 6.52 6.8 4.8zm6 10.16h-1.6v-1.602h1.6zm-1.198.8h.796v.68l-.398.598-.398-.598zm.796-3.198h-.796V8.8h.796zm-7.199-6c0-.524.32-.961.801-1.122V4.8c0 2.2 1.762 4 3.84 4h.96v.907a.808.808 0 0 0-.402.691V12c0 .293.165.55.403.691v.91c0 .079.039.16.078.239l.8 1.2c.083.081.2.16.321.16s.238-.04.32-.16l.801-1.2a.57.57 0 0 0 .078-.238v-.91a.808.808 0 0 0 .403-.692v-1.602a.808.808 0 0 0-.403-.691v-.906h.961C16.238 8.8 18 7 18 4.8V2.48c.48.16.8.597.8 1.12v17.2H5.2zM4 15.199a.78.78 0 0 1 .398-.68v1.762a.78.78 0 0 1-.398-.68zm-.398 2.64c0-.359.277-.64.597-.64h.2v2.48a2.452 2.452 0 0 1-.797-1.84zm3.597 5.36h-.094c-.02-.004-.043-.004-.062-.004-.008-.004-.016-.004-.023-.004a2.017 2.017 0 0 1-1.782-1.59h13.524a2.017 2.017 0 0 1-1.782 1.59c-.007 0-.015 0-.023.004-.02 0-.043 0-.062.004H16.8zm12.403-3.558v-2.442h.199c.32 0 .597.281.597.602 0 .719-.277 1.36-.796 1.84zm0 0"/>
</svg>
